X:1101
T:Pohlsk dans 
T:(Totakt-pols, nr. JMB-6)
S:efter Jens Millersen Bjerg
R:Totakt-pols
O:Husby, Ringköbing amt, Danmark
N:[[Platser/Danmark|Fler låtar från Danmark...]]
M:2/4
L:1/16
K:D
|: d2(df) e2(eg) | f2(fa) g2e2 | d2(df) e2(eg) | f6 a2 |
d2(df) e2(eg) | f2(fa) g2e2 | d2B2 (AB)(AG) | F6 F2 :: a4 (bagf) | {f1/2}g2{f1/2}g2g2e2 |
f2a2 (ba)(gf) | (f2e2) e4 | a4 (bagf) | g2g2b2g2 | f2f2 (eg)(ec) | d6 d2 :|
(:musicend:)


(:music:)
